P3
32 16
255
230 230 230
230 230 230
230 230 230
230 230 230
230 230 230
230 230 230
230 230 230
230 230 230
230 230 230
230 230 230
230 230 230
230 230 230
230 230 230
230 230 230
230 230 230
230 230 230
230 230 230
230 230 230
230 230 230
230 230 230
230 230 230
230 230 230
230 230 230
230 230 230
230 230 230
230 230 230
230 230 230
230 230 230
230 230 230
230 230 230
230 230 230
230 230 230
230 230 230
230 230 230
230 230 230
230 230 230
230 230 230
230 230 230
230 230 230
230 230 230
230 230 230
230 230 230
230 230 230
230 230 230
230 230 230
230 230 230
230 230 230
230 230 230
230 230 230
230 230 230
230 230 230
230 230 230
230 230 230
230 230 230
230 230 230
230 230 230
230 230 230
230 230 230
230 230 230
230 230 230
230 230 230
230 230 230
230 230 230
230 230 230
230 230 230
230 230 230
230 230 230
230 230 230
230 230 230
230 230 230
230 230 230
230 230 230
230 230 230
230 230 230
230 230 230
230 230 230
230 230 230
230 230 230
230 230 230
230 230 230
230 230 230
230 230 230
230 230 230
230 230 230
230 230 230
230 230 230
230 230 230
230 230 230
230 230 230
230 230 230
230 230 230
230 230 230
230 230 230
230 230 230
230 230 230
230 230 230
230 230 230
230 230 230
230 230 230
230 230 230
230 230 230
230 230 230
230 230 230
230 230 230
230 230 230
230 230 230
230 230 230
230 230 230
230 230 230
230 230 230
230 230 230
230 230 230
230 230 230
230 230 230
230 230 230
230 230 230
230 230 230
230 230 230
230 230 230
230 230 230
230 230 230
230 230 230
230 230 230
230 230 230
230 230 230
230 230 230
230 230 230
230 230 230
230 230 230
230 230 230
230 230 230
230 230 230
230 230 230
230 230 230
230 230 230
230 230 230
230 230 230
230 230 230
230 230 230
230 230 230
230 230 230
230 230 230
230 230 230
230 230 230
230 230 230
230 230 230
230 230 230
230 230 230
230 230 230
230 230 230
230 230 230
230 230 230
230 230 230
230 230 230
230 230 230
230 230 230
230 230 230
230 230 230
230 230 230
230 230 230
230 230 230
230 230 230
230 230 230
230 230 230
230 230 230
40 120 220
40 120 220
40 120 220
40 120 220
40 120 220
40 120 220
230 230 230
230 230 230
230 230 230
230 230 230
230 230 230
230 230 230
230 230 230
230 230 230
230 230 230
230 230 230
230 230 230
230 230 230
230 230 230
230 230 230
230 230 230
230 230 230
230 230 230
230 230 230
230 230 230
230 230 230
230 230 230
230 230 230
230 230 230
230 230 230
230 230 230
230 230 230
40 120 220
40 120 220
40 120 220
40 120 220
40 120 220
40 120 220
230 230 230
230 230 230
230 230 230
230 230 230
230 230 230
230 230 230
230 230 230
230 230 230
230 230 230
230 230 230
230 230 230
230 230 230
230 230 230
230 230 230
230 230 230
230 230 230
230 230 230
230 230 230
230 230 230
230 230 230
230 230 230
230 230 230
230 230 230
230 230 230
230 230 230
230 230 230
40 120 220
40 120 220
40 120 220
40 120 220
40 120 220
40 120 220
230 230 230
230 230 230
230 230 230
230 230 230
230 230 230
230 230 230
230 230 230
230 230 230
230 230 230
230 230 230
230 230 230
230 230 230
230 230 230
230 230 230
230 230 230
230 230 230
230 230 230
230 230 230
230 230 230
230 230 230
230 230 230
230 230 230
230 230 230
230 230 230
230 230 230
230 230 230
40 120 220
40 120 220
40 120 220
40 120 220
40 120 220
40 120 220
230 230 230
230 230 230
230 230 230
230 230 230
230 230 230
230 230 230
230 230 230
230 230 230
230 230 230
230 230 230
230 230 230
230 230 230
230 230 230
230 230 230
230 230 230
230 230 230
230 230 230
230 230 230
230 230 230
230 230 230
230 230 230
230 230 230
230 230 230
230 230 230
230 230 230
230 230 230
40 120 220
40 120 220
40 120 220
40 120 220
40 120 220
40 120 220
230 230 230
230 230 230
230 230 230
230 230 230
230 230 230
230 230 230
230 230 230
230 230 230
230 230 230
230 230 230
230 230 230
230 230 230
230 230 230
230 230 230
230 230 230
230 230 230
230 230 230
230 230 230
230 230 230
230 230 230
230 230 230
230 230 230
230 230 230
230 230 230
230 230 230
230 230 230
40 120 220
40 120 220
40 120 220
40 120 220
40 120 220
40 120 220
230 230 230
230 230 230
230 230 230
230 230 230
230 230 230
230 230 230
230 230 230
230 230 230
230 230 230
230 230 230
230 230 230
230 230 230
230 230 230
230 230 230
230 230 230
230 230 230
230 230 230
230 230 230
230 230 230
230 230 230
230 230 230
230 230 230
230 230 230
230 230 230
230 230 230
230 230 230
230 230 230
230 230 230
230 230 230
230 230 230
230 230 230
230 230 230
230 230 230
230 230 230
230 230 230
230 230 230
230 230 230
230 230 230
230 230 230
230 230 230
230 230 230
230 230 230
230 230 230
230 230 230
230 230 230
230 230 230
230 230 230
230 230 230
230 230 230
230 230 230
230 230 230
230 230 230
230 230 230
230 230 230
230 230 230
230 230 230
230 230 230
230 230 230
230 230 230
230 230 230
230 230 230
230 230 230
230 230 230
230 230 230
230 230 230
230 230 230
230 230 230
230 230 230
230 230 230
230 230 230
230 230 230
230 230 230
230 230 230
230 230 230
230 230 230
230 230 230
230 230 230
230 230 230
230 230 230
230 230 230
230 230 230
230 230 230
230 230 230
230 230 230
230 230 230
230 230 230
230 230 230
230 230 230
230 230 230
230 230 230
230 230 230
230 230 230
230 230 230
230 230 230
230 230 230
230 230 230
230 230 230
230 230 230
230 230 230
230 230 230
230 230 230
230 230 230
230 230 230
230 230 230
230 230 230
230 230 230
230 230 230
230 230 230
230 230 230
230 230 230
230 230 230
230 230 230
230 230 230
230 230 230
230 230 230
230 230 230
230 230 230
230 230 230
230 230 230
230 230 230
230 230 230
230 230 230
230 230 230
230 230 230
230 230 230
230 230 230
230 230 230
230 230 230
230 230 230
230 230 230
230 230 230
230 230 230
230 230 230
230 230 230
230 230 230
230 230 230
230 230 230
230 230 230
230 230 230
230 230 230
230 230 230
230 230 230
230 230 230
230 230 230
230 230 230
230 230 230
230 230 230
230 230 230
230 230 230
230 230 230
230 230 230
230 230 230
230 230 230
230 230 230
230 230 230
230 230 230
230 230 230
230 230 230
230 230 230
230 230 230
230 230 230
230 230 230
230 230 230
230 230 230
230 230 230
230 230 230
230 230 230
230 230 230
230 230 230
230 230 230
230 230 230
230 230 230
230 230 230
230 230 230
230 230 230
230 230 230
230 230 230
230 230 230
230 230 230
230 230 230
230 230 230
